X:1
T:Aus tiefer Not
T:Georg Vogelhuber (fl.1532  fl.1544)
T:Rhau Newe Deudsche geistliche Gesenge, 1544
%%score [ 1 2 3 4 ]
L:1/8
Q:1/4=240
M:none
K:F
V:1 treble nm="superius"
V:2 treble-8 nm="altus"
V:3 treble-8 nm="tenor"
V:4 bass nm="bassus"
V:1
 z16 | z16 x8 | z16 x4 | c16 x2 | =B8 c6 _B2 x8 | A4 G4 d4 d4 | c6 B2 A4 B8 x12 | %7
w: |||Aus|tie- fer *|Not * * schrei|ich * * *|
w: |||||||
 A2 G2 A2 G2 F2 E2 D4 x4 | G8 ^F4 G4 | c8 =B4 c8 | z4 G4- x16 | G2 A2 B2 c2 d4 D2 E2 | %12
w: ||zu * dir,|Herr,|* * * * * Gott, *|
w: |||||
 F2 G2 A2 B2 c8 | B8 A8 x8 | G4 c6 B2 B4 | c6 B2 G4 A4 | B8 A6 G2 | F16 | z16 x8 | z16 x8 | %20
w: |er- hör|mein Ru- * *|||fen.|||
w: ||* * * fen,|mein * Ru- *|||||
 c16 x2 | B8 c6 B2 | A4 G4 d4 d4 | c6 B2 A4 B8 | A2 G2 A2 G2 F2 E2 D4 x4 | G8 ^F4 G4 | %26
w: Dein|gnä- dig *|Oh- * * ren|kehr * * *|||
w: ||||||
 c8 =B4 c8 x4 | z4 G4- x8 | G2 A2 B2 c2 d4 D2 E2 | F2 G2 A2 B2 c8 x8 | B8 A8 | G4 c6 B2 B4 | %32
w: zu * mir,|und|* * * * * mei- *||ner Bitt|sie öf- * *|
w: |||||* * * fen,|
 c6 B2 G4 A4 | B8 A6 G2 | F8 z4 c8 | A4 B4 A8 | G2 F2 E4 F4 E8 | D4 B8 G4 | F8 x8 | c6 B2 A4 G4 | %40
w: ||* Denn|so du wilt|* * * das se-||hen|an, * * was|
w: sie * öf- *||fen. *||||||
 A8 G8 x2 | A4 c6 =B2 B4 x6 | c4 A8 d8 | B4 c4 A4 x4 | d4 c8 B6 | B2 A4 G4 F4 c4 x2 | B4 A4 G8 x2 | %47
w: Sünd und|Un- * * recht|ist * *|ge- tan, *|Wer kann, *|Herr, für * dir blei-||
w: |||||||
 F8 E4 F16 x2 |] %48
w: * * ben?|
w: |
V:2
 z16 | z8 f16 | e8 f4 a8 | g2 f2 g8 f4 x2 | e4 f4 c4 f4 x8 | g4 x12 | e8 f4 B4 x16 | d6 e2 f4 d8 | %8
w: |Aus|tie- fer Not||||* schrei *|ich * * zu|
 c2 B2 A8 e4 | f4 g8 c2 d2 x4 | e2 f2 g4 G2 A2 x12 | B2 c2 d2 e2 f8 | z4 c6 d2 e2 c2 | %13
w: * * * dir|* * Herr *|* * * Gott, *||er- * * *|
 f4 F6 G2 A2 F2 x8 | B4 A4 B8 | G16- | G16 | z16 | z8 f16 | e8 f4 a8 x4 | g2 f2 g8 f4 x2 | %21
w: hör mein * * *|* * Ru-|fen.|||Dein|gnä- dig Oh-||
 e4 f4 c4 f4 | g4 x12 | e8 f4 B4 x4 | d6 e2 f4 d8 | c2 B2 A8 e4 | f4 g8 c2 d2 x8 | %27
w: ||* ren *|kehr * * zu|* * * mir|* * und *|
 e2 f2 g4 G2 A2 x4 | B2 c2 d2 e2 f8 | z4 e6 f2 g2 e2 x8 | f4 F6 G2 A2 F2 | B4 A4 B8 | %32
w: * * * mei- *|* * * * ner|Bitt * * *|* sie * * *|* * öf-|
 G4 A4 F4 f4- | f2 e2 e4 f8 | f4 d4 c8 x4 | A4 f8 f4 | c4 e8 d8 | ^c4 d6 =c2 B4 | c8 =B4 x4 | %39
w: fen * Denn so|* * du *|wilt * *|* * das|se- * *||* hen|
 c8 z4 G4 | c6 d2 e2 f2 g4 x2 | c8 d8 x6 | c4 c4 A4 B6 x2 | G2 g6 f2 f4 x2 | g4 f4 g8 x2 | %45
w: an, was|Sünd * * * und|Un- recht|ist ge- tan, Wer|* kann, * Herr,|für * *|
 G8 z4 c4 x4 | A4 G4 A4 c6 | B2 A4 G8 F16 |] %48
w: dir blei-||* * * ben?|
V:3
 z16 | z16 x8 | z16 x4 | z16 x2 | z8 c16 | B8 x8 | c8 d24 | z8 d8 x4 | c8 d8 | e16 x4 | z8 f16 | %11
w: ||||Aus|tie-|fer Noth|schrei|ich zu|dir,|Herr|
 e8 d8 | c8 B4 c4 | d8 c16- | c16 | z16 | z16 | z16 | z16 x8 | z8 c16 | B8 x10 | c8 d8- | d16 | %23
w: Gott, er-|hör mein *|Ru- fen.||||||Dein|gnä-|dig Oh-||
 z8 d8 x4 | c8 d8 x4 | e16 | z8 f16 | e8 d8 | c8 B4 c4 | d8 c16 | z8 c8 | d4 f4 e8 | c8 d4 c4 | %33
w: ren|kehr zu|mir|Und|mei- ner|Bitt sie *|öf- fen.|Denn|so du wilt|das se- hen|
 A16 | z8 B8 x4 | G4 G4 d8 | e8 f4 e4 x4 | c16 | z8 g8 | e8 f8 | d8 c8 x2 | B4 c4 d8 x6 | c16- x4 | %43
w: an,|Was|Sünd und Un-|recht ist ge-|tan|Wer|kann, Herr,|für *|dir * blei-|ben?|
 c16 | c16 x2 | c16 x4 | x18 | x30 |] %48
w: |||||
V:4
 F,16 | E,8 F,4 A,8 x4 | G,2 F,2 G,8 F,6 x2 | G,2 A,2 B,2 C4 G,8 | A,6 G,2 F,4 E,4 x8 | %5
w: Aus|tie- fer Not|* * * schrei|* * * * ich|zu * dir, aus|
 D,4 G,4 x8 | A,6 G,2 F,4 G,8 x12 | F,2 E,2 D,6 E,2 F,4 x4 | G,4 D,8 z4 | A,4 G,8 C4 x4 | %10
w: tie- fer|Not * * schrei||* ich|zu * dir,|
 C,6 D,2 E,2 F,2 x12 | G,8 F,8 | D,4 z4 z4 A,,4 | B,,2 C,2 D,2 E,2 F,8 x8 | G,4 A,4 G,8 | C,16- | %16
w: Herr * * *||Gott, er-|hör * * * *|mein * Ru-|fen.|
 C,16 | F,16 | E,8 F,4 A,8 x4 | G,2 F,2 G,8 F,6 x6 | G,2 A,2 B,2 C4 G,8 | A,6 G,2 F,4 E,4 | %22
w: |Dein|gnä- dig Oh-|* * * ren|* * * * kehr|zu * mir, dein|
 D,4 G,4 x8 | A,6 G,2 F,4 G,4- x4 | G,4 F,2 E,2 D,6 E,2 x4 | F,4 G,4 D,8 | z4 A,4 G,8 x8 | %27
w: gnä- dig|oh- * * *||* * ren|kehr *|
 C4 C,6 D,2 E,2 F,2 | G,8 F,8 | D,4 z4 z4 A,,4 x8 | B,,2 C,2 D,2 E,2 F,8 | G,4 A,4 G,8 | %32
w: zu mir * * *||* Und|mei- * ner * Bitt|sie * öf-|
 C,4 C6 B,2 A,4 | G,8 F,6 E,2 | D,8 A,12 | F,4 B,4 F,8 | E,2 D,2 C,4 D,4 A,8 | B,4 G,6 F,2 E,4 | %38
w: fen, Denn * *|so du *|* wilt|* das se-|||
 D,8 x8 | C,8 D,4 E,4 | F,8 C,4 C6 | B,2 A,4 G,8 A,8 | D,8 G,8 x4 | A,8 x8 | G,4 A,4 G,8 x2 | %45
w: hen|an, Was *|Sünd und Un-|* * recht ist|ge- tan,|Wer|kann, * Herr,|
 C,6 D,2 E,4 F,8 | E,4 F,4 C,4 E,4 x2 | F,4 C,8 F,16 x2 |] %48
w: für * * dir|* * * blei-|* * ben?|

